X:0
T:Sweet Potato Rag
C:Copyright 2012 Caz Lewis
K:G
L:1/8
M:2/4
|"Intro"B>B B>GA|G4|
|:d(d d)e|de/(g/ gg)|d(d d)e|d>e d/B/G|
d(d d)e|de/(g/ g)a|1b>b b/a/g|a2 aa:|2 b2a2|g3(e/f/)|
|:g(g g)e|d>e d/B/G|g(g g)a|b3 e/f/
|1 g(g g)e|d>e d/B/G|B>B B/A/G|A3(e/f/):|
|2g/f/g ge|d/e/d B/A/G|B>B B/>G/A|G4||